X: 40304
T: Tom And Jerry
R: reel
M: 4/4
K: Amajor
A3c BAcB|AcAc BAGB|Acea gafg|(3 agf ec (3 BcB AF|
EFAc (3BcA GB|Acea ga=ga|fgaf efed|cdBc AFEF||
A3 =c BAcB|AcAc (3 BcA GB|Acea (3 gag ec|defd BGED|
CEAc BA (3BcB|AEAc BABd|cAce abaf|ecBc A2 ED||
{|:CEAE CEAE|DFAF DFAF|EGBG EGBG|(3 ABA GA FAED|
CEAE CEAE|DFAF DFAF|(3 EFG Ac eaed|cdBc A4:|

